dist/img/sprites/benefits-assistance-3.svg

<svg viewBox="0 0 338 200" fill="none" xmlns="http://www.w3.org/2000/svg">
<path d="M162 3.5L141 45.5L98.5 50.5L94 70.5L123 101.5L116.5 139L130 150L169 132.5L206.5 150L222 139L214.5 116L218 95L244.5 66L239 55.5L231 50.5L195 41L175 7L162 3.5Z" fill="#FFFFAF"/>
<path d="M131.483 156.498C129.873 156.496 128.304 155.985 127 155.037L114.38 145.91C113.217 145.062 112.312 143.905 111.767 142.57C111.222 141.235 111.059 139.774 111.295 138.35L117.787 100.379L89.7595 72.9964C88.7395 72.0024 88.0159 70.743 87.6697 69.3594C87.3235 67.9757 87.3685 66.5227 87.7995 65.1632L92.2736 50.9821C92.712 49.6045 93.5261 48.3777 94.6239 47.4405C95.7216 46.5034 97.059 45.8935 98.4846 45.6799L137.354 40.0124L154.929 4.29002C155.557 2.99792 156.536 1.91003 157.753 1.15117C158.971 0.392308 160.376 -0.00667923 161.809 8.45908e-05H176.191C177.624 -0.00667923 179.03 0.392308 180.247 1.15117C181.464 1.91003 182.443 2.99792 183.072 4.29002L200.646 40.0124L239.516 45.6799C240.941 45.8909 242.279 46.4988 243.377 47.4347C244.475 48.3705 245.289 49.5967 245.727 50.9738L250.201 65.1715C250.632 66.531 250.677 67.984 250.331 69.3677C249.985 70.7513 249.261 72.0107 248.241 73.0047L220.213 100.388L226.706 138.359C226.946 139.781 226.785 141.243 226.241 142.578C225.698 143.914 224.793 145.071 223.629 145.918L210.992 155.046C209.838 155.888 208.47 156.388 207.046 156.49C205.622 156.591 204.199 156.289 202.937 155.618L169.029 137.72L135.122 155.618C134 156.208 132.749 156.51 131.483 156.498ZM168.988 126.526C170.232 126.523 171.459 126.825 172.561 127.406L206.237 145.171L215.772 138.284L209.33 100.612C209.121 99.3803 209.213 98.1164 209.597 96.9285C209.982 95.7405 210.648 94.664 211.538 93.7909L239.359 66.5821L236.051 56.0522L197.504 50.4345C196.27 50.2556 195.099 49.7784 194.09 49.044C193.082 48.3096 192.266 47.3401 191.714 46.2191L174.273 10.7624H163.712L146.278 46.2191C145.727 47.341 144.912 48.3113 143.903 49.0458C142.895 49.7803 141.723 50.257 140.489 50.4345L101.933 56.0522L98.6251 66.5738L126.454 93.7909C127.344 94.6644 128.009 95.7413 128.392 96.9293C128.775 98.1173 128.865 99.381 128.654 100.612L122.22 138.284L131.747 145.171L165.423 127.406C166.523 126.826 167.746 126.524 168.988 126.526Z" fill="#2C2A2D"/>
<path d="M267.201 199.861C265.866 199.859 264.566 199.438 263.486 198.656L255.88 193.196C254.919 192.498 254.171 191.548 253.721 190.451C253.271 189.354 253.136 188.154 253.332 186.984L256.898 166.255L241.489 151.284C240.636 150.47 240.029 149.435 239.736 148.295C239.443 147.154 239.477 145.955 239.834 144.833L242.532 136.329C242.895 135.195 243.57 134.185 244.48 133.413C245.389 132.642 246.498 132.14 247.679 131.965L269.047 128.872L278.712 109.339C279.235 108.277 280.047 107.383 281.055 106.759C282.063 106.134 283.227 105.805 284.414 105.809H293.12C294.306 105.804 295.469 106.132 296.477 106.757C297.484 107.381 298.294 108.277 298.814 109.339L308.488 128.872L329.855 131.965C331.036 132.139 332.144 132.639 333.054 133.409C333.964 134.179 334.639 135.188 335.002 136.321L337.708 144.842C338.062 145.964 338.095 147.162 337.802 148.302C337.51 149.442 336.904 150.477 336.053 151.292L320.653 166.255L324.219 186.984C324.415 188.154 324.279 189.355 323.827 190.453C323.376 191.55 322.626 192.5 321.662 193.196L314.049 198.656C313.093 199.349 311.96 199.761 310.781 199.844C309.602 199.927 308.423 199.678 307.379 199.127L288.742 189.36L270.106 199.127C269.211 199.6 268.215 199.852 267.201 199.861ZM288.8 178.068C289.832 178.066 290.849 178.315 291.763 178.793L310.035 188.37L313.205 186.094L309.712 165.793C309.54 164.782 309.616 163.744 309.934 162.768C310.253 161.793 310.804 160.909 311.541 160.193L326.661 145.493L325.61 142.194L304.681 139.166C303.661 139.02 302.693 138.628 301.859 138.024C301.026 137.421 300.352 136.624 299.898 135.702L290.373 116.532H287.145L277.661 135.686C277.207 136.607 276.534 137.405 275.701 138.009C274.867 138.612 273.898 139.004 272.878 139.15L251.95 142.186L250.899 145.485L266.018 160.176C266.756 160.893 267.309 161.778 267.627 162.756C267.946 163.733 268.021 164.772 267.847 165.785L264.355 186.085L267.524 188.362L285.805 178.785C286.716 178.309 287.73 178.062 288.759 178.068H288.8Z" fill="#2C2A2D"/>
<path d="M70.8914 199.861C69.8564 199.857 68.8376 199.605 67.9206 199.127L49.2675 189.36L30.6227 199.127C29.5784 199.678 28.4003 199.926 27.2215 199.845C26.0428 199.763 24.9103 199.355 23.9526 198.665L16.3391 193.196C15.3777 192.498 14.6301 191.548 14.1799 190.451C13.7297 189.354 13.5947 188.154 13.7902 186.984L17.357 166.255L1.94803 151.284C1.09629 150.469 0.489817 149.434 0.197354 148.294C-0.0951092 147.154 -0.0619129 145.956 0.292918 144.833L2.99075 136.329C3.35629 135.196 4.03165 134.188 4.94104 133.417C5.85042 132.646 6.95771 132.143 8.13811 131.965L29.5137 128.872L39.1797 109.347C39.699 108.282 40.5097 107.384 41.5185 106.758C42.5273 106.132 43.6931 105.803 44.8814 105.809H53.579C54.7663 105.803 55.931 106.132 56.9395 106.756C57.9481 107.381 58.7597 108.276 59.281 109.339L68.955 128.872L90.3225 131.965C91.5023 132.142 92.6091 132.643 93.5186 133.412C94.428 134.182 95.1039 135.189 95.4699 136.321L98.1677 144.842C98.5228 145.962 98.556 147.16 98.2635 148.299C97.971 149.437 97.3644 150.471 96.5126 151.284L81.1035 166.255L84.6703 186.984C84.8696 188.154 84.7365 189.355 84.286 190.453C83.8355 191.551 83.0856 192.501 82.1213 193.196L74.5079 198.656C73.4557 199.42 72.1926 199.84 70.8914 199.861ZM49.2675 178.068C50.3032 178.066 51.3236 178.318 52.2385 178.802L70.5024 188.37L73.6803 186.094L70.1881 165.793C70.0119 164.783 70.0856 163.744 70.4028 162.768C70.7201 161.792 71.2713 160.908 72.0087 160.193L87.1364 145.493L86.0854 142.194L65.1565 139.167C64.1364 139.018 63.1679 138.625 62.3334 138.022C61.4989 137.418 60.8234 136.622 60.3649 135.702L50.9226 116.532H47.6869L38.2113 135.686C37.7545 136.607 37.0798 137.404 36.245 138.008C35.4103 138.611 34.4407 139.003 33.4199 139.15L12.4911 142.186L11.44 145.485L26.5678 160.176C27.3068 160.894 27.8594 161.781 28.178 162.76C28.4966 163.738 28.5717 164.779 28.3966 165.793L24.9044 186.085L28.0738 188.362L46.3462 178.785C47.2481 178.316 48.2501 178.07 49.2675 178.068Z" fill="#2C2A2D"/>
</svg>

<svg viewBox="0 0 338 200" fill="none" xmlns="http://www.w3.org/2000/svg"><path d="M162 3.5l-21 42-42.5 5-4.5 20 29 31-6.5 37.5 13.5 11 39-17.5 37.5 17.5 15.5-11-7.5-23 3.5-21 26.5-29-5.5-10.5-8-5-36-9.5-20-34-13-3.5z" fill="#FFFFAF"/><path d="M131.483 156.498a7.64 7.64 0 01-4.483-1.461l-12.62-9.127a7.766 7.766 0 01-2.613-3.34 7.794 7.794 0 01-.472-4.22l6.492-37.971-28.028-27.383a7.701 7.701 0 01-1.96-7.833l4.475-14.18a7.744 7.744 0 012.35-3.542 7.704 7.704 0 013.86-1.761l38.87-5.668L154.929 4.29a7.628 7.628 0 012.824-3.139 7.6 7.6 0 014.056-1.15h14.382a7.598 7.598 0 014.056 1.15 7.638 7.638 0 012.825 3.139l17.574 35.722 38.87 5.668a7.688 7.688 0 013.861 1.755 7.726 7.726 0 012.35 3.539l4.474 14.197a7.703 7.703 0 01.13 4.197 7.68 7.68 0 01-2.09 3.637l-28.028 27.383 6.493 37.971a7.761 7.761 0 01-3.077 7.559l-12.637 9.128a7.604 7.604 0 01-8.055.572l-33.908-17.898-33.907 17.898a7.664 7.664 0 01-3.639.88zm37.505-29.972a7.623 7.623 0 013.573.88l33.676 17.765 9.535-6.887-6.442-37.672a7.736 7.736 0 012.208-6.821l27.821-27.209-3.308-10.53-38.547-5.617a7.67 7.67 0 01-3.414-1.391 7.71 7.71 0 01-2.376-2.825l-17.441-35.457h-10.561L146.278 46.22a7.687 7.687 0 01-2.375 2.827 7.645 7.645 0 01-3.414 1.389l-38.556 5.617-3.308 10.522 27.829 27.217a7.713 7.713 0 011.938 3.138 7.74 7.74 0 01.262 3.683l-6.434 37.672 9.527 6.887 33.676-17.765a7.615 7.615 0 013.565-.88zm98.213 73.335a6.35 6.35 0 01-3.715-1.205l-7.606-5.46a6.392 6.392 0 01-2.159-2.745 6.363 6.363 0 01-.389-3.467l3.566-20.729-15.409-14.971a6.298 6.298 0 01-1.753-2.989 6.27 6.27 0 01.098-3.462l2.698-8.504a6.373 6.373 0 011.948-2.916 6.397 6.397 0 013.199-1.448l21.368-3.093 9.665-19.533a6.334 6.334 0 015.702-3.53h8.706a6.318 6.318 0 013.357.948 6.295 6.295 0 012.337 2.582l9.674 19.533 21.367 3.093a6.395 6.395 0 013.199 1.444 6.356 6.356 0 011.948 2.912l2.706 8.521a6.307 6.307 0 01-1.655 6.45l-15.4 14.963 3.566 20.729a6.373 6.373 0 01-2.557 6.212l-7.613 5.46a6.327 6.327 0 01-6.67.471l-18.637-9.767-18.636 9.767a6.337 6.337 0 01-2.905.734zm21.599-21.793a6.368 6.368 0 012.963.725l18.272 9.577 3.17-2.276-3.493-20.301a6.335 6.335 0 01.222-3.025 6.337 6.337 0 011.607-2.575l15.12-14.7-1.051-3.299-20.929-3.028a6.342 6.342 0 01-4.783-3.464l-9.525-19.17h-3.228l-9.484 19.154a6.325 6.325 0 01-4.783 3.464l-20.928 3.036-1.051 3.299 15.119 14.691a6.325 6.325 0 011.829 5.609l-3.492 20.3 3.169 2.277 18.281-9.577a6.3 6.3 0 012.954-.717h.041zM70.891 199.861a6.482 6.482 0 01-2.97-.734l-18.654-9.767-18.644 9.767a6.355 6.355 0 01-6.67-.462l-7.614-5.469a6.391 6.391 0 01-2.16-2.745 6.366 6.366 0 01-.389-3.467l3.567-20.729-15.409-14.971a6.293 6.293 0 01-1.655-6.451l2.698-8.504a6.39 6.39 0 011.95-2.912 6.426 6.426 0 013.197-1.452l21.376-3.093 9.666-19.525a6.294 6.294 0 012.339-2.589 6.318 6.318 0 013.362-.949h8.698a6.327 6.327 0 013.36.947 6.306 6.306 0 012.342 2.583l9.674 19.533 21.368 3.093a6.427 6.427 0 013.196 1.447 6.386 6.386 0 011.95 2.909l2.699 8.521a6.275 6.275 0 01-1.655 6.442l-15.41 14.971 3.567 20.729c.2 1.17.067 2.371-.384 3.469a6.355 6.355 0 01-2.165 2.743l-7.613 5.46a6.328 6.328 0 01-3.617 1.205zm-21.624-21.793a6.328 6.328 0 012.971.734l18.264 9.568 3.178-2.276-3.492-20.301a6.291 6.291 0 011.82-5.6l15.128-14.7-1.05-3.299-20.93-3.027a6.375 6.375 0 01-4.792-3.465l-9.441-19.17h-3.236l-9.476 19.154a6.348 6.348 0 01-4.791 3.464l-20.929 3.036-1.051 3.299 15.128 14.691a6.337 6.337 0 011.829 5.617l-3.493 20.292 3.17 2.277 18.272-9.577a6.36 6.36 0 012.922-.717z" fill="#2C2A2D"/></svg>
